X: 51
% Old value - X: 5
T: The Silver Spear
R: reel
M: 4/4
L: 1/8
K: Dmaj
|:"D"FA~A2 BAFA|dfed "G"BcdA|"D"FA ~A2 BAFA|"G"dfed BcdA|
"D"FA ~A2 {A}BAFA|dfed Bd ef|"G"g2 fe f2 fe|dfed B2 A[Gd]:||
|:"D"fa af bfaf|"G"gfed Bcde|"D"fa af bfaf|"Em"gfed "G"B2 "A"A2|
"D"fa af bfaf|"G"gfed Bdef|"Em"g3e "D"f3e |dfed "G"B2 "A"A2:||

